archdroid-icon-theme/Archdroid-LightBlue/apps/scalable/preferences-desktop-display.svg

<svg fill="#03A9F4" height="48" viewBox="0 0 48 48" width="48" xmlns="http://www.w3.org/2000/svg"><path d="m24.01 11-4.01 5h8zm11.99 9v8l5-3.99zm-24 0-5 4.01 5 3.99zm16 12h-8l4.01 5zm14-26h-36c-2.21 0-4 1.79-4 4v28c0 2.21 1.79 4 4 4h36c2.21 0 4-1.79 4-4v-28c0-2.21-1.79-4-4-4zm0 32.03h-36v-28.06h36z" fill="#03A9F4"/></svg>

<svg fill="#03A9F4" height="48" viewBox="0 0 48 48" width="48" xmlns="http://www.w3.org/2000/svg"><path d="M24.01 11L20 16h8l-3.99-5zM36 20v8l5-3.99L36 20zm-24 0l-5 4.01L12 28v-8zm16 12h-8l4.01 5L28 32zM42 6H6c-2.21 0-4 1.79-4 4v28c0 2.21 1.79 4 4 4h36c2.21 0 4-1.79 4-4V10c0-2.21-1.79-4-4-4zm0 32.03H6V9.97h36v28.06z"/></svg>
